public/svg/wallet-icons/coinbase.svg

<svg fill="none" height="28" viewBox="0 0 28 28" width="28" xmlns="http://www.w3.org/2000/svg"><path d="m0 0h28v28h-28z" fill="#2c5ff6"/><path clip-rule="evenodd" d="m14 23.8c5.4124 0 9.8-4.3876 9.8-9.8 0-5.41239-4.3876-9.8-9.8-9.8-5.41239 0-9.8 4.38761-9.8 9.8 0 5.4124 4.38761 9.8 9.8 9.8zm-2.45-13c-.4142 0-.75.3358-.75.75v4.9c0 .4142.3358.75.75.75h4.9c.4142 0 .75-.3358.75-.75v-4.9c0-.4142-.3358-.75-.75-.75z" fill="#fff" fill-rule="evenodd"/></svg>

<svg width="28" height="28" viewBox="0 0 28 28" fill="none" xmlns="http://www.w3.org/2000/svg">
<rect width="28" height="28" fill="#2C5FF6"/>
<path fill-rule="evenodd" clip-rule="evenodd" d="M14 23.8C19.4124 23.8 23.8 19.4124 23.8 14C23.8 8.58761 19.4124 4.2 14 4.2C8.58761 4.2 4.2 8.58761 4.2 14C4.2 19.4124 8.58761 23.8 14 23.8ZM11.55 10.8C11.1358 10.8 10.8 11.1358 10.8 11.55V16.45C10.8 16.8642 11.1358 17.2 11.55 17.2H16.45C16.8642 17.2 17.2 16.8642 17.2 16.45V11.55C17.2 11.1358 16.8642 10.8 16.45 10.8H11.55Z" fill="white"/>
</svg>
